src/shared/assets/images/Trash/TrashIcon.svg

<svg xmlns="http://www.w3.org/2000/svg" width="100" height="100" viewBox="0 0 128 128"><path d="M49 1c-1.66 0-3 1.34-3 3s1.34 3 3 3h30c1.66 0 3-1.34 3-3s-1.34-3-3-3zM24 15c-7.17 0-13 5.83-13 13s5.83 13 13 13h77v63c0 9.37-7.63 17-17 17H44c-9.37 0-17-7.63-17-17V52c0-1.66-1.34-3-3-3s-3 1.34-3 3v52c0 12.68 10.32 23 23 23h40c12.68 0 23-10.32 23-23V40.64c5.72-1.36 10-6.5 10-12.64 0-7.17-5.83-13-13-13zm0 6h80c3.86 0 7 3.14 7 7s-3.14 7-7 7H24c-3.86 0-7-3.14-7-7s3.14-7 7-7m26 34c-1.66 0-3 1.34-3 3v46c0 1.66 1.34 3 3 3s3-1.34 3-3V58c0-1.66-1.34-3-3-3m28 0c-1.66 0-3 1.34-3 3v46c0 1.66 1.34 3 3 3s3-1.34 3-3V58c0-1.66-1.34-3-3-3"/></svg>

<svg xmlns="http://www.w3.org/2000/svg" x="0px" y="0px" width="100" height="100" viewBox="0 0 128 128">
<path d="M 49 1 C 47.34 1 46 2.34 46 4 C 46 5.66 47.34 7 49 7 L 79 7 C 80.66 7 82 5.66 82 4 C 82 2.34 80.66 1 79 1 L 49 1 z M 24 15 C 16.83 15 11 20.83 11 28 C 11 35.17 16.83 41 24 41 L 101 41 L 101 104 C 101 113.37 93.37 121 84 121 L 44 121 C 34.63 121 27 113.37 27 104 L 27 52 C 27 50.34 25.66 49 24 49 C 22.34 49 21 50.34 21 52 L 21 104 C 21 116.68 31.32 127 44 127 L 84 127 C 96.68 127 107 116.68 107 104 L 107 40.640625 C 112.72 39.280625 117 34.14 117 28 C 117 20.83 111.17 15 104 15 L 24 15 z M 24 21 L 104 21 C 107.86 21 111 24.14 111 28 C 111 31.86 107.86 35 104 35 L 24 35 C 20.14 35 17 31.86 17 28 C 17 24.14 20.14 21 24 21 z M 50 55 C 48.34 55 47 56.34 47 58 L 47 104 C 47 105.66 48.34 107 50 107 C 51.66 107 53 105.66 53 104 L 53 58 C 53 56.34 51.66 55 50 55 z M 78 55 C 76.34 55 75 56.34 75 58 L 75 104 C 75 105.66 76.34 107 78 107 C 79.66 107 81 105.66 81 104 L 81 58 C 81 56.34 79.66 55 78 55 z"></path>
</svg>
